X:1
T:"Creeping Around" Instrumental Remix of "Der Bardengeist" 
T:Composed as "Der Bardengeist" (WoO 142)  (The Bardic Spirit) by Ludwig van Beethoven (1770-1827) Remixed by Henry Miller (b. 2003) 
T:Set by Arthur Stammet © 2017 - All rights reserved
T:Set by Arthur Stammet © 2017 - All rights reserved
Z:Set by Arthur Stammet © 2017 - All rights reserved
%%score { 1 | ( 2 4 ) | ( 3 5 ) }
L:1/8
Q:1/4=120
M:6/8
K:G
V:1 treble nm="Organ" snm="Org."
V:2 treble 
V:4 treble 
V:3 bass 
V:5 bass 
V:1
"^\nAndante" z z3 | z6 |: z2 g e2 f | g2 a b2 g | e2 g f2 e | ^d2 e f z f | g2 g g2 g | %7
 g2 (=f/e/) e2 e | =f2 f f2 e | e2 ^d ((e^f)) g | a2 a g2 f | e2 z4 | z6 | z6 | z6 :| z6 | z6 | %17
 z6 | z2 |] %19
V:2
 z z3 | z2 [Gg]!<(! e2!<)!!>(! [^df]!>)! |: [eg]2 [B,G] [B,E]2 [A,^DF] | [G,EG]3 E3 | E3 F2 E | %5
 ^D2 [G,B,E] [DF] z [DF] | [G,EG]3 [G,=D=FG]3 | [EG]2 [D=F]/[CE]/ [CE]2 [G,CE] | %8
 [C=F]3- [CF]2 [CE] | E2"_cresc." ^D [G,B,E][A,DF]!>(![B,EG]!>)! | [A,EA]2 [A,EA] [B,EG]2 [A,^DF] | %11
 [G,E]2 B (c2 A | F2) ([EA] [EG]2 [A,^DF]) | [G,E]2 z z3 | z2 [Gg] [Be]2 [^df] :| %15
 [eg]2!<(! ([B,G] [B,E]2!<)!!>(! [A,^DF]!>)! | [G,EG]2) z [B,EG]2 z | [G,B,E]2 z [A,^DF]2 z | %18
 !fermata![G,E]2 |] %19
V:3
!p!!ped! E,, G,,2 B,, | E,G,B,/E/ x2 x |: z2!ped-up! E, G,2 F, | E,3 G,,3 | C,3 [F,C]3 | %5
 B,,3 B,,3 | B,,3 B,,3 | C,3- C,2 C, | x4 x A,, | [^F,B,]3 G,,F,,E,,/=D,,/ | C,,2!p! C, B,,2 B,, | %11
 E,2 z!ped! !>!A,3- |!p! A,2!ped-up! C B,2 B,, | E,2!ped! (E,, G,,2 B,, | E,G,B,/E/) x2 x :| %15
 z2!ped-up! E,, G,,2 F,, | E,2 z!pp!!ped! B,,2 z!ped-up! | %17
!ped! B,,2 z!ped-up!!ped! B,,2 z!ped-up! | !fermata!E,2 |] %19
V:4
 x4 | x2 z [GB]2 [FA] |: [EG]2 x4 | x3[I:staff +1] [E,G,]3 | [E,G,]3 x3 | %5
 [F,B,]2[I:staff -1] x x3 | x6 | G,3- G,2 x |[I:staff +1] =F,3- F,2[I:staff -1] x | x6 | x6 | %11
 x2 x [^D-F]3 | D2 x4 | x6 | x2 x G2 [FA] :| [EG]2 x4 | x6 | x6 | x2 |] %19
V:5
 x4 | x6 |: x6 | x6 | x3 A,,3 | x6 | x6 | x6 | A,,3- A,,2 x | A,,3 x3 | x6 | x6 | x6 | x6 | x6 :| %15
 x6 | x6 | x6 | x2 |] %19

